svg/fluentui-system-icons/ic_fluent_shapes_28_filled.svg

<svg width="28" height="28" viewBox="0 0 28 28" fill="none" xmlns="http://www.w3.org/2000/svg">
<path d="M9 14V17.9381C5.05369 17.446 2 14.0796 2 10C2 5.58172 5.58172 2 10 2C14.1654 2 17.5872 5.18341 17.9653 9.25H13.75C11.1266 9.25 9 11.3766 9 14ZM13.75 10.25C11.6789 10.25 10 11.9289 10 14V22.5C10 24.5711 11.6789 26.25 13.75 26.25H22.25C24.3211 26.25 26 24.5711 26 22.5V14C26 11.9289 24.3211 10.25 22.25 10.25H13.75Z" fill="#212121"/>
</svg>

<svg xmlns="http://www.w3.org/2000/svg" width="28" height="28"><path d="M9 14v3.938A8.001 8.001 0 0 1 10 2a8 8 0 0 1 7.965 7.25H13.75A4.75 4.75 0 0 0 9 14Zm4.75-3.75A3.75 3.75 0 0 0 10 14v8.5a3.75 3.75 0 0 0 3.75 3.75h8.5A3.75 3.75 0 0 0 26 22.5V14a3.75 3.75 0 0 0-3.75-3.75h-8.5Z"/></svg>
